X: 804
T: Pay the girl her fourpence
C: anon.
O: Ireland
B: Francis O'Neill: "The Dance Music of Ireland" (1907) no. 804
R: Reel
Z: Transcribed by Frank Nordberg - http://www.musicaviva.com
F: http://www.musicaviva.com/abc/tunes/ireland/oneill-1001/oneill-1001-080
4.abc
m: Tn = (3n/o/n/
m: Tn3 = n(3n/o/n/ m/n/
M: C|
L: 1/8
K: Em
(fe)|d(TBB2) dBG(B|d)c(Ac g2)fe|d(cBc) dBG(f|g)ef(d eg)fe|d(TBB2) dBGB|d(
ed)B dfga|b(agb) afd(f|g)efd e2:|
|:(ef)|(g2b)(g fg)af|gef(d e)dBd|(g2b)(g f2)a(f|(3g)fe fd e3f|gabg fga(f|
(3g)fe f(d e)dBd|Tg3 (e f)efg|a(fdf)e2:|
W:
W:
W: From Musica Viva - http://www.musicaviva.com
W: the Internet center for free sheet music downloads.


